X:413
T:Soldier's Joy
C:Traditional
N:Arranged by Kim Davis
R:bluegrass
L:1/8
Q:1/4=240
M:4/4
K:D
z6 AB |: "C"AG FE DE FG | A2 [f2d2] [f2d2] AB | AG FE DE FG | "G"AB AF E2 AB | 
"C"AG FE DE FG | A2 [f2d2] [f2d2] de | fa gf "G"eg fe |1 d2 [f2d2A2] [f2d2A2] AB :|2 d2 [f2d2A2] [f4d4A4] | 
|: "C"de fg af af | "F"ed ef gf ge | "C"de fg af df | "G"gf ed cB A2 | "C"de fg af af | 
"F"ed ef g2 ag | "C"fe df "G"ed ce | "C"d2 [f2d2A2] [f4d4A4] :| 


